X:1
T:Rondo alla ingharese quasi un capriccio
T:Rondo alla ingharese quasi un capriccio
T:"Rage Over a Lost Penny, Vented in a Caprice"
T:Ludwig van Beethoven
T:Anton Diabelli
T:1795-98, 1828
T:1795-98, 1828
T:1795-98, 1828
T:1795-98, 1828
T:1795-98, 1828
T:1795-98, 1828
T:1795-98, 1828
T:1795-98, 1828
T:1795-98, 1828
T:1795-98, 1828
T:1795-98, 1828
T:1795-98, 1828
T:1795-98, 1828
T:1795-98, 1828
T:1795-98, 1828
C:Ludwig van Beethoven
Z:Anton Diabelli
Z:1795-98, 1828
%%score { ( 1 4 ) | ( 2 3 ) }
L:1/8
Q:1/4=160
M:2/4
K:G
V:1 treble nm="Piano" snm="Pno."
V:4 treble 
V:2 bass 
V:3 bass 
V:1
"^Allegro vivace"!p! (B2 .d).d | .g.g (!>!b2 | d'/c'/d'/c'/ .a) z | (d'/c'/d'/c'/ .a) z | %4
 (B2 .d).d | .g.g (!>!b2 | d'/c'/d'/c'/ .a)(a/b/ | g2) z2 | (b/a/g/f/ e/f/g/a/ | .b).b !>!e'2 | %10
 (e'/^d'/e'/d'/ .b) z | (e'/^d'/e'/d'/ .b) z | (b/a/g/f/!<(! e/f/g/a/ | .b).b !tenuto!e'2 | %14
 T^c'3 b/c'/ | !tenuto!d'2 !tenuto!d2!<)! |!f! (B2 .d).d | .g.g !>!b2 | (d'/=c'/d'/c'/) !>!a z | %19
 (d'/c'/d'/c'/) !>!a z | (B2 .d).d | .g.g !>!b2 | (d'/c'/d'/c'/ .a)(a/b/ | g2) z2 || %24
!ff! b/a/g/f/ e/f/g/e/ | ^d/e/f/d/ B/^c/d/B/ | G/A/B/G/ E/F/G/E/ | ^D/E/F/D/ B,/^C/D/B,/ | %28
[K:bass] G,/A,/B,/G,/ E,/F,/G,/E,/ | ^C,/=D,/E,/F,/ G,/A,/B,/^C/ |[K:treble] D/E/F/G/ A/B/=c/^c/ | %31
!>(! (d/e/f/g/ a/b/c'/a/)!>)! |!p! ([Bb]2 .d).d | .g.g (!>!b2 | d'/c'/d'/c'/ .a) z | %35
 (d'/c'/d'/c'/ .a) z | (B2 .d).d | .g.g (!>!b2 | d'/c'/d'/c'/ .a)(a/b/ | g2) z2 | %40
 (b/a/g/f/ e/f/g/a/ | .b).b !>!e'2 | (e'/^d'/e'/d'/ .b) z | (e'/^d'/e'/d'/ .b) z | %44
 (b/a/g/f/!<(! e/f/g/a/ | .b).b !tenuto!e'2 | T^c'3 b/c'/ | !tenuto!d'2 !tenuto!d2!<)! | %48
!f! (B2 .d).d | .g.g !>!b2 | (d'/=c'/d'/c'/) !>!a z | (d'/c'/d'/c'/) !>!a z | (B2 .d).d | %53
 .g.g !>!b2 | (d'/c'/d'/c'/ .a)(a/b/ | g2) z .d |:[K:Bb]!f! !>!b/d'/g/b/ d/g/B/d/ | %57
!>(! e/g/c/e/ G/c/!>)!!p!E/G/ |!f! !>!a/c'/f/a/ c/f/A/c/ |!>(! d/f/B/d/ F/B/!>)!!p!D/F/ | %60
!f! !>!f'/d'/b/d'/ f/b/d/f/ | c/e/G/c/ E/G/C/E/ | D/F/!>(!B,/D/ C/E/A,/C/!>)! |1!p! B,2 z!f! .d :|2 %64
!p! B,2 z .f |:!f! !>!f'/d'/b/d'/ f/b/d/f/ |!>(! =B/d/F/B/ D/F/!>)!!p!=B,/D/ | %67
!f! !>!e'/c'/g/c'/ e/g/!>!d/g/ |!>(! !>!^c/=e/G/c/ =E/G/!>)!!p!^C/E/ | %69
!f! D/!p!^F/!<(!A/F/ d/A/^f/d/!<)! |!f! !>!g/d/B/d/ G/B/D/G/ | _E/G/C/E/ A,/C/^F,/A,/ |1 %72
 G,2 z .=f :|2!>(! G,/D/B,/D/ G, z!>)! ||!p! .[G,B,].[G,B,] .[G,B,].[G,B,] | %75
 .[G,B,].[G,B,] .[G,B,].[G,B,] | .[_A,B,].[A,B,] .[A,B,].[A,B,] | .[_A,B,].[A,B,] .[A,B,].[A,B,] | %78
 (E2 .G).G | .B.B !tenuto!e2 | (d/^c/d/c/ g2) | (d/^c/d/c/ =a2) ||[K:G] (B2 .d).d | .g.g (!>!b2 | %84
 d'/c'/d'/c'/ .a) z | (d'/c'/d'/c'/ .a) z |{/^A} (B2{/^c} .d).d |{/f} .g.g{/^a} !>!b2 | %88
 (d'/c'/d'/c'/ .a)(a/b/ | g2) z2 | (b/a/g/f/ e/f/g/a/ | .b).b !>!e'2 | (e'/^d'/e'/d'/ .b) z | %93
 (e'/^d'/e'/d'/ .b) z | (b/a/g/f/!<(! e/f/g/a/ | .b).b !tenuto!e'2 | T^c'3 b/c'/ | %97
 !tenuto!d'2 !tenuto!d2!<)! |!f! ^A/B/A/B/ ^c/d/c/d/ | f/g/f/g/ ^a/b/a/b/ | (d'/^c'/=c'/b/ .=a) z | %101
 (d'/^c'/=c'/b/ .a) z | (^A/B/).B, (^c/d/).D | (f/g/).G (^a/b/).B | d'/^c'/=c'/b/ a/b/c'/a/ | %105
 g2 z2 |:[K:E]!f! .[egbe']2 .[Begb]2 | !>![GBeg]2 z ([Be] |!p! .[Bd]).[Be] .[Bf].[Bg] | %109
!<(! .[Ba].[Bb] .[cc'].[dd']!<)! |!f! .[egbe']2 .[Begb]2 | !>![GBeg]2 z ([GB] | %112
!>(! .[FB]).[GB] .[FB].[E^A] |[M:3/8] [DB]2!>)!!p! z ::[M:1/8]!p! (B | %115
[M:2/4]!f! .[B=a])!p!.[Bg] .[Bf].[Be] | .[Bd].[Bc] .B.[AB] | .[GB].[FB] .[EB]!<(!.[DB] | %118
 .[EB].[DB] .[EB].[GB]!<)! |!f! .[Ba]!p!.[Bg] .[Bf].[Be] | .[Bd].[Bc] .B.[AB] | %121
 .[GB].[FA] .[EG].[DF] |[M:3/8] .E2 z :|[M:1/8]!f! .B |[M:2/4] .[Begb]2 .[GBeg]2 | %125
 !>![EGBe]2 z!p! ([EG] | .[EA]).[EG]"_rit."[Q:1/4=152] .[EA].[EB] | %127
!<(! .[E=c][Q:1/4=148].[EB] .[Ec][Q:1/4=144].[=DF] | .[=D=G].[DF][Q:1/4=140] .[DG].[DA]!<)! || %129
[K:G][Q:1/4=160]"^A tempo"!f! (B2 .d).d | .g.g (!>!b2 | d'/c'/d'/c'/ .a) z | (d'/c'/d'/c'/ .a) z | %133
 (B2 .d).d | .g.g (!>!b2 | d'/c'/d'/c'/ .a)(a/b/ | g2) z2 | (b/a/g/f/ e/f/g/a/ | .b).b !>!e'2 | %139
 (e'/^d'/e'/d'/ .b) z | (e'/^d'/e'/d'/ .b) z |!p! (b/a/g/f/ e/f/g/a/ | .b).b !tenuto!e'2 | %143
 T^c'3 b/c'/ |!<(! !tenuto!d'2 !tenuto!d2!<)! |!ff! (B2 .d).d | .g.g !>!b2 | %147
 (d'/=c'/d'/c'/) !>!a z | (d'/c'/d'/c'/) !>!a z | (B2 .d).d | .g.g !>!b2 | (d'/c'/d'/c'/ .a)(a/b/ | %152
 g2) z!p![Q:1/4=165] .G | (d/c/d/c/) !tenuto!A2 | (c/B/c/B/) !tenuto!G2 | (B/A/B/A/) !tenuto!F2 | %156
 (A/G/A/G/) !tenuto!d2 | (d/c/d/c/)!<(! !tenuto!A2 | (c/_B/c/B/) !tenuto!G2 | %159
 (g/^c/g/c/) !tenuto!G2 | (g/^c/g/c/) !tenuto!G2 | (f/d/f/d/)!<)!!ff! !tenuto!A2 | %162
 (f/d/f/d/) !tenuto!A2 | (g/_d/g/d/) !tenuto!G2 |[Q:1/4=162]"^.5" (g/_d/g/d/) !tenuto!G2 || %165
[K:Ab][Q:1/4=160]"^A tempo"!pp! (c2 .e).e | .a.a !tenuto!c'2 | (e'/d'/e'/d'/ !tenuto!b2) | %168
 (e'/d'/e'/d'/ !tenuto!b2) | (c2 .e).e | .a.a !tenuto!c'2 | (e'/d'/e'/d'/ .b)(b/c'/ | %172
 .a)!<(! z z2!<)! |!mf! .[Ac].[Ac] .[Ac].[Ac] | .[Ac].[Ac] .[Ac].[Ac] | .[Bc].[Bc] .[Bc].[Bc] | %176
 .[Bc].[Bc] .[Bc].[Bc] | .[Ac].[Ac] .[Ac].[Ac] | .[Ac].[Ac] .[Ac].[Ac] | %179
 .[Bc].[Bc]!>(! .[Bc].[Bc] | .[GB]!>)!!p!.[GB] .[GB].[GB] |!<(! (c2 .e).e | .a.a !tenuto!c'2 | %183
 (e'/d'/e'/d'/ !tenuto!b2) | (e'/d'/e'/d'/ !tenuto!b2)!<)! |!f! z/ c'/a/e/ c/a/e/c/ | %186
!>(! A/c/A/E/ C/A/E/C/!>)! |!p! z/ G/c/=e/ g/c/e/g/ |!<(! c'/=e/g/c'/ =e'/g/c'/e'/!<)! | %189
!f! z/ f'/c'/a/ f/c'/a/f/ |!>(! c/f/c/A/ F/c/A/F/!>)! |!p! z/ C/E/A/ c/E/A/c/ | %192
!<(! e/A/c/e/ a/c/e/a/!<)! |!ff! (!>![Dd]2 .[Ff]).[Ff] | .[Aa].[Aa] !>![dd']2 | %195
 !>![ee']2 .[ce=ac'].[ceac'] | .[=Ace=a].[Acea] !>![EAce]2 | (!>![DBd]2 .[Ff]).f | %198
 .[Bb].b !>![dd']2 | !>![_cfa_c']2 .a.[Aa] | .f.[Ff] !>!_c2 | (!>!B2 .d).d | ._g.g !>!b2 | %203
 (!>!d'2 .b).b | .g.g !>!=e2 | (!>!_e'2 .c').c' | .=a.a .f.f | e/"^legato"=A,/B,/C/ =D/E/F/G/ | %208
 =A/B/c/=d/ e/f/g/=a/ | b/c'/=d'/e'/ f'/e'/d'/c'/ | b/=a/g/f/!>(! e/=d/c/B/ | %211
 =A/G/F/E/ =D/C/B,/=A,/!>)! |[K:bass]!p! G,/F,/E,/=D,/ C,/B,,/=A,,/G,,/ | %213
!<(! F,,/G,,/=A,,/B,,/ C,/=D,/E,/F,/ | G,/=A,/B,/C/[K:treble] =D/E/F/G/!<)! | %215
!ff! =A/B/c/=d/ e/f/!>(!g/f/ | e/=d/c/B/ =A/_A/G/_G/!>)! ||[K:Bb]!p!"^Tranquillo" (=EF B2 | %218
 ^cd f2 | fe c2 | fe c2) | (^CD F2 | AB d2 | fe [Ec]2 | [DB]2) z2 | ([^C^c][Dd]) !>![Gg]2 | %226
 ([^C^c][Dd]) !>![Gg]2 | ([Gg][^F^f]) !>![Dd]2 | ([Gg][^F^f]) !>![Dd]2 | %229
 ([^C^c][Dd])!<(! !>![Gg]2 | ([^C^c][Dd]) !>![Gg]2!<)! |!mp! ([=F=f][Ee]) z2 | %232
[Q:1/4=155]"_poco rit." ([Gg][Ff]) z2 |[Q:1/4=160]"^A tempo"!<(! ([^C^c][Dd] [Ff]2 | %234
 [Aa][Bb] [dd']2) | ([ff'][ee'] [cc']2 | [ff'][ee'] [cc']2) | ([^C^c][Dd] [Ff]2 | %238
 [Aa][Bb] [dd']2)!<)! |!mf! (fe) !tenuto!c2 |!p! (fd) !tenuto!B2 |!mf! (gf) !tenuto!d2 | %242
!p! (ge) !tenuto!c2 |!<(! (c'^f) !tenuto!c2 | (c'g) !tenuto!c2 | (c'a) !tenuto!c2 | %246
 (c'a) !tenuto!c2!<)! |[K:G]!f! z/ c'/e'/d'/ c'/b/a/g/ | f/e/d/c/ B/A/G/F/ | %249
 E/D/C/B,/[K:bass] A,/G,/F,/E,/ | D,/C,/B,,/A,,/ G,,/F,,/E,,/D,,/ | %251
 ^C,,/D,,/E,,/F,,/ G,,/A,,/B,,/=C,/ | (3(.D,.^D,.E,) (3(.=F,.^F,.G,) | %253
 (3(.^G,.A,.^A,) (3(.B,.C.^C) |[K:treble]!>(! (3(.D.E.F) (3(.G.A.^A)!>)! |!mf! (^AB [Bd]2 | %256
 fg [Bdb]2) | (d'c' [da]2 | d'c' [da]2) | (^AB [Bd]2 |!<(! fg [Bdb]2)!<)! |!ff! (d'!>(!c' [da]2 | %262
 [dg]2)!>)! z2 |!p! ([^A^a][Bb] !>![ee']2 | [^A^a][Bb] !>![ee']2) | ([ee'][^d^d'] !>![Bb]2) | %266
 ([ee'][^d^d'] !>![Bb]2) |!<(! ([^A^a][Bb] !>![ee']2!<)! |!f! [^A^a][Bb] !>![ee']2) | %269
!>(! ([=dd'][^c^c']) z2 | ([ee'][dd'])!>)!!p! z2 |"^Con fuoco"!ff! (^AB) (^cd) | (fg) (^ab) | %273
 (d'/c'/d'/c'/ !>!=a2) | (d'/c'/d'/c'/ !>!a2) | (^AB) (^cd) | (fg) (^ab) | (d'/c'/d'/c'/ a)(a/b/ | %278
 g2) z!pp![Q:1/4=165] .d |"_leggiermente" (d'/c'/d'/c'/) !tenuto!a2 | (c'/b/c'/b/) !tenuto!g2 | %281
 (b/a/b/a/) !tenuto!f2 | (a/g/a/g/) !tenuto!e2 | (g/=f/g/f/) !tenuto!=d2 | (=f/e/f/e/) !tenuto!c2 | %285
 (e/d/e/d/) !tenuto!B2 | (d/c/d/c/) !tenuto!A2 |"^meno legato" c/B/A/G/!<(! B/A/G/F/ | %288
 A/G/F/E/ G/F/E/D/ | F/E/D/C/ E/D/C/B,/ | D/C/B,/A,/ C/B,/A,/G,/!<)! | %291
[K:bass]!f! ^D,/^D/F,/D/ C/D/D,/D/ | E,/E/G,/E/ ^C/E/E,/E/ | %293
[K:treble] z/!p! (B,/^C/^D/!<(! E/F/^G/^A/ | B/^c/^d/e/ f/^g/^a/b/)!<)! | %295
!f! ^G,/^G/B,/G/ =F/G/G,/G/ | A,/A/=C/A/ ^F/A/A,/A/ | z/!p! (E/F/^G/!<(! A/B/^c/^d/ | %298
 e/f/^g/a/ b/^c'/^d'/e'/)!<)! |!f! ^C/^c/E/c/ _B/c/C/c/ | D/d/=F/d/ =B/d/D/d/ | %301
 D/d/=F/d/ =B/d/D/d/ | _E/_e/G/e/ c/e/E/e/ | C/c/_E/c/ A/c/C/c/ | C/c/_E/c/ A/c/C/c/ | %305
 C/c/_E/c/ A/c/C/c/ | _D/_d/=F/d/ _B/d/D/d/ | _B,/_B/_D/B/ G/B/B,/B/ | _B,/_B/_D/B/ G/B/B,/B/ | %309
 z/!p! (_B,/C/D/!<(! _E/=F/G/A/ | _B/c/d/_e/ =f/g/a/_b/)!<)! |!ff! !>!c'2 ._a.a | ._e.e !>!c2 | %313
 !>!_B,/C/=E/_B/ !>!C/E/B/c/ | !>!=E/_B/c/=e/ !>!B/c/e/_b/ | !>!_a2 .=f.f | .c.c !>!_A2 | %317
 !>!G,/C/_E/G/ !>!C/E/G/c/ | !>!_E/G/c/_e/ !>!G/c/e/g/ | z/ !>!c'/a/^f/ c/f/c/A/ | %320
 ^F/c/A/F/ C/A/F/C/ | z/ !>!_b/g/e/ _B/g/d/B/ | G/_B/G/E/ _B,/G/E/B,/ | z/ !>!g/e/^c/ G/e/c/G/ | %324
 E/G/E/^C/ G,/E/C/G,/ | z/ !>!a/^f/d/ A/f/d/A/ | ^F/d/A/F/ D/A/F/D/ | z/ !>!=c'/a/f/ c/f/c/A/ | %328
 F/c/A/F/ C/A/F/C/ | z/ !>!c'/g/_e/ c/e/c/G/ | _E/c/G/E/ C/G/E/C/ | z/ !>!c'/g/=e/ c/e/c/G/ | %332
 =E/G/E/C/ G,/E/C/G,/ | z/ !>!c'/a/=f/ c/f/c/A/ | =F/c/A/F/ C/A/F/C/ | z/ c'/=b/a/ g/^f/e/d/ | %336
 c/B/A/G/ F/E/!>(!D/C/ |[K:bass] B,/A,/G,/F,/ E,/D,/C,/B,,/ | z4!>)! |!f! z4 | D,2 .F,.F, | %341
 A,2 z2 | F,2 .A,.A, | C2 z2 |[K:treble] A,2 .C.C | [C_E]2 [F,A,]2 | [C_E]2 [F,A,]2 | [C=E]2 G,2 | %348
 [B,=F]2 G,2 | [D=F]2 [^G,B,]2 | [D=F]2 [^G,B,]2 | [D^F]2 A,2 | [^CG]2 A,2 | [EG]2 [^A,^C]2 | %354
 [EG]2 [^A,^C]2 | [E^G]2 B,2 | [^DA]2 B,2 |!>(! [EB]2 B,2 | [^DA]2 B,2 | [E^G]2 B,2 | [_EA]2 _C2 | %361
 [_E_B]2 _B,2 | [D_A]2 _B,2!>)! |!p! [_EG]2!>(! _B,2 | [Gc]2 C2 | [Gd]2 D2 | [Fc]2 C2!>)! | %367
!pp! [G_B]2 D2 |[Q:1/4=160]"_rit." [Gc]2!<(! C2 |[Q:1/4=150] [Gd]2 C2 |[Q:1/4=140] [Fd]2 C2!<)! | %371
!f![Q:1/4=160]"^A tempo" .[=B,DG=B] z .[DGBd] z | .[GBdg] z .[Bdgb] z | %373
 (!>!c'/d'/c'/b/) (!>!a/b/a/g/) | (!>!f/g/f/e/) (!>!d/e/d/c/) | .[B,DGB] z .[DGBd] z | %376
 .[GBdg] z .[Bdgb] z | (!>!c'/d'/c'/b/) (!>!a/b/c'/a/) | .[GBdg] z .[B,DG] z | .[Begb] z .[GBe] z | %380
 .[Begb] z .[egbe'] z | (!>!^d'/e'/d'/=c'/) .b z | (!>!^d'/e'/d'/=c'/) .b z | .[Begb] z .[GBe] z | %384
 .[Begb] z .[egbe'] z | (!>!^c'/d'/c'/b/ a/g/f/e/ | d/e/d/^c/ .d) z | !>![B,B]2 .[Dd].[Dd] | %388
 .[Gg].[Gg] !tenuto![Bb]2 | (d'/c'/d'/c'/) .a z | (d'/c'/d'/c'/) .a z | !>![B,B]2 .[Dd].[Dd] | %392
 .[Gg].[Gg] !tenuto![Bb]2 | (d'/c'/d'/c'/) .a(a/b/ | .g2)!p! (G/A/B/c/ | d/c/B/A/ G/A/B/c/ | %396
 .d).d .g2 | (!>!g2 f) z | z .=f .f.f | (e/d/c/B/ A/B/c/d/ | .e).e .a2 | (!>!a2 g) z | z .g .g.g | %403
 (^f/e/^d/^c/ B/c/d/e/ | .f).f !tenuto!b2 | .^g.g !tenuto!e'2 | .e.e !tenuto!a2 | %407
 .f.f !tenuto!d'2 | .d.d !tenuto!g2 |!f! .e.e !tenuto!c'2 | .d.d !tenuto!b2 | .c.c !tenuto!a2 | %412
 .^c.c !tenuto!a2 | .[Bdg]!p![Q:1/4=132]"^Allegretto".D .G.G | .B.B !tenuto!d2 | (d/c/d/c/ .A) z | %416
 (d/c/d/c/ .A) z | (G2 .B).B | .d.d .g.g | (g/f/g/f/) !tenuto!d2 | (g/f/g/f/) !tenuto!d2 | %421
!<(! (d2 .[dg]).[dg] | .[gb].[gb] !tenuto![bd']2!<)! |!f! (d'/c'/d'/c'/)!>(! !tenuto![fa]2 | %424
 (d'/c'/d'/c'/) !tenuto![fa]2!>)! |!p! !tenuto![gb]2[Q:1/4=137]"_sempre accel." z2 | %426
[Q:1/4=142]!>(! !tenuto![ac']2[Q:1/4=147] z2 |[Q:1/4=152] !tenuto![GB]2 z2 | %428
[Q:1/4=154] !tenuto![Ac]2 z2 |[K:bass][Q:1/4=156] !tenuto![G,B,]2 z2 | %430
[Q:1/4=158] !tenuto![A,C]2 z2 |[Q:1/4=160] !tenuto![G,B,]2 z2 |[Q:1/4=162] !tenuto![A,C]2 z2!>)! | %433
[Q:1/4=164]!pp! !tenuto![G,B,]2!>(! z2 |[K:treble][Q:1/4=166] (F/G/F/G/) z2 | %435
[K:bass][Q:1/4=168] !tenuto![G,B,]2 z2 |[K:treble] (^c/d/c/d/) z2!>)! | %437
[K:bass]!ppp! !tenuto![G,B,]2!<(! z2 |[K:treble] (f/g/f/g/) z2!<)! |!fff! z4 | !>![GBdg]2 z2 | %441
 !>![G,B,DG]2 z2 |] %442
V:2
 .[G,B,D].[G,B,D] .[G,B,D].[G,B,D] | .[G,B,D].[G,B,D] .[G,B,D].[G,B,D] | %2
 .[G,CDF].[G,CDF] .[G,CDF].[G,CDF] | .[G,CDF].[G,CDF] .[G,CDF].[G,CDF] | %4
 .[G,B,D].[G,B,D] .[G,B,D].[G,B,D] | .[G,B,D].[G,B,D] .[G,B,D].[G,B,D] | %6
 .[G,CDF].[G,CDF] .[G,CDF].[G,CDF] | .[G,B,DG].[G,B,] .[G,B,].[G,B,] | %8
 .[E,G,B,].[E,G,B,] .[E,G,B,].[E,G,B,] | .[E,G,B,].[E,G,B,] .[E,G,B,].[E,G,B,] | %10
 .[B,,F,A,B,].[B,,F,A,B,] .[B,,F,A,B,].[B,,F,A,B,] | %11
 .[B,,F,A,B,].[B,,F,A,B,] .[B,,F,A,B,].[B,,F,A,B,] | .[E,G,B,].[E,G,B,] .[E,G,B,].[E,G,B,] | %13
 .[E,G,B,].[E,G,B,] .[E,G,B,].[E,G,B,] | .[A,,E,G,A,].[A,,E,G,A,] .[A,,E,G,A,].[A,,E,G,A,] | %15
 .[D,F,A,].[D,F,A,] .[D,F,A,].[D,F,A,] | .[G,,B,,D,G,].[G,,B,,D,G,] .[G,,B,,D,G,].[G,,B,,D,G,] | %17
 .[G,,B,,D,G,].[G,,B,,D,G,] .[G,,B,,D,G,].[G,,B,,D,G,] | %18
 .[G,,C,D,F,].[G,,C,D,F,] .[G,,C,D,F,].[G,,C,D,F,] | %19
 .[G,,C,D,F,].[G,,C,D,F,] .[G,,C,D,F,].[G,,C,D,F,] | %20
 .[G,,B,,D,G,].[G,,B,,D,G,] .[G,,B,,D,G,].[G,,B,,D,G,] | %21
 .[G,,B,,D,G,].[G,,B,,D,G,] .[G,,B,,D,G,].[G,,B,,D,G,] | %22
 .[G,,C,D,F,].[G,,C,D,F,] .[G,,C,D,F,].[G,,C,D,F,] | [G,,B,,D,G,]2 !>!G,,2 || %24
 !>![E,,G,,B,,E,].[E,,G,,B,,E,] z .[E,,E,] | !>![B,,F,A,].[B,,F,A,] z .[B,,F,A,] | %26
 !>![E,G,].[E,G,] z .[E,G,] | !>!B,,.B,, z .B,, | !>!E,,.E,, z .E,, | .[A,,,A,,].[A,,,A,,] z .A,, | %30
 D,2 [A,,E,G,]2 | [D,F,]2 z2 | .[G,B,D].[G,B,D] .[G,B,D].[G,B,D] | %33
 .[G,B,D].[G,B,D] .[G,B,D].[G,B,D] | .[G,CDF].[G,CDF] .[G,CDF].[G,CDF] | %35
 .[G,CDF].[G,CDF] .[G,CDF].[G,CDF] | .[G,B,D].[G,B,D] .[G,B,D].[G,B,D] | %37
 .[G,B,D].[G,B,D] .[G,B,D].[G,B,D] | .[G,CDF].[G,CDF] .[G,CDF].[G,CDF] | %39
 .[G,B,DG].[G,B,] .[G,B,].[G,B,] | .[E,G,B,].[E,G,B,] .[E,G,B,].[E,G,B,] | %41
 .[E,G,B,].[E,G,B,] .[E,G,B,].[E,G,B,] | .[B,,F,A,B,].[B,,F,A,B,] .[B,,F,A,B,].[B,,F,A,B,] | %43
 .[B,,F,A,B,].[B,,F,A,B,] .[B,,F,A,B,].[B,,F,A,B,] | .[E,G,B,].[E,G,B,] .[E,G,B,].[E,G,B,] | %45
 .[E,G,B,].[E,G,B,] .[E,G,B,].[E,G,B,] | .[A,,E,G,A,].[A,,E,G,A,] .[A,,E,G,A,].[A,,E,G,A,] | %47
 .[D,F,A,].[D,F,A,] .[D,F,A,].[D,F,A,] | .[G,,B,,D,G,].[G,,B,,D,G,] .[G,,B,,D,G,].[G,,B,,D,G,] | %49
 .[G,,B,,D,G,].[G,,B,,D,G,] .[G,,B,,D,G,].[G,,B,,D,G,] | %50
 .[G,,C,D,F,].[G,,C,D,F,] .[G,,C,D,F,].[G,,C,D,F,] | %51
 .[G,,C,D,F,].[G,,C,D,F,] .[G,,C,D,F,].[G,,C,D,F,] | %52
 .[G,,B,,D,G,].[G,,B,,D,G,] .[G,,B,,D,G,].[G,,B,,D,G,] | %53
 .[G,,B,,D,G,].[G,,B,,D,G,] .[G,,B,,D,G,].[G,,B,,D,G,] | %54
 .[G,,C,D,F,].[G,,C,D,F,] .[G,,C,D,F,].[G,,C,D,F,] | [G,,B,,D,G,]2 !>!G,,2 |: %56
[K:Bb] !>![G,,B,,D,G,].[G,,B,,D,G,] z .[G,,B,,D,G,] | .[C,E,G,].[C,E,G,] z .[C,E,G,] | %58
 !>![F,,A,,C,F,].[F,,A,,C,F,] z .[F,,A,,C,F,] | .[B,,D,F,].[B,,D,F,] z .[B,,D,F,] | %60
 !>![D,,D,].[D,,D,] z .[D,,D,] | .[E,,E,].[E,,E,] z .[E,,E,] | .[F,,F,] z .F,, z |1 %63
 z/!<(! B,,/D,/C,/ B,,/C,/!<)!B,,/A,,/ :|2 z/!<(! B,,/D,/F,/ B, z!<)! |: .[B,,B,]3 .[_A,,_A,] | %66
 .[G,,G,]2 z .[G,,G,] | .[C,C]2 z .[_B,,_B,] | .[=A,,=A,]2 z .[A,,,A,,] | .[D,,D,]3 .[=C,,=C,] | %70
 .[_B,,,_B,,].[B,,,B,,] z .[B,,,B,,] | !>![C,,C,]2 !>![D,,D,]2 |1 z/ G,,,/B,,,/D,,/ G,, z :|2 %73
 [G,,,G,,]2 z/ B,,,/C,,/D,,/ || (E,,2 .G,,).G,, | .B,,.B,, !>!E,2 | (E,/D,/E,/D,/ B,,2) | %77
 (E,/D,/E,/D,/ B,,2) | .[E,G,B,].[E,G,B,] .[E,G,B,].[E,G,B,] | %79
 .[E,G,B,].[E,G,B,] .[E,G,B,].[E,G,B,] | .[=E,G,B,].[E,G,B,] .[E,G,B,].[E,G,B,] | %81
 .[^F,=A,D].[F,=A,D] .[F,=A,D].[F,=A,D] ||[K:G] .[G,B,D].[G,B,D] .[G,B,D].[G,B,D] | %83
 .[G,B,D].[G,B,D] .[G,B,D].[G,B,D] | .[G,CDF].[G,CDF] .[G,CDF].[G,CDF] | %85
 .[G,CDF].[G,CDF] .[G,CDF].[G,CDF] | .[G,B,D].[G,B,D] .[G,B,D].[G,B,D] | %87
 .[G,B,D].[G,B,D] .[G,B,D].[G,B,D] | .[G,CDF].[G,CDF] .[G,CDF].[G,CDF] | %89
 .[G,B,DG].[G,B,] .[G,B,].[G,B,] | .[E,G,B,].[E,G,B,] .[E,G,B,].[E,G,B,] | %91
 .[E,G,B,].[E,G,B,] .[E,G,B,].[E,G,B,] | .[B,,F,A,B,].[B,,F,A,B,] .[B,,F,A,B,].[B,,F,A,B,] | %93
 .[B,,F,A,B,].[B,,F,A,B,] .[B,,F,A,B,].[B,,F,A,B,] | .[E,G,B,].[E,G,B,] .[E,G,B,].[E,G,B,] | %95
 .[E,G,B,].[E,G,B,] .[E,G,B,].[E,G,B,] | .[A,,E,G,A,].[A,,E,G,A,] .[A,,E,G,A,].[A,,E,G,A,] | %97
 .[D,F,A,].[D,F,A,] .[D,F,A,].[D,F,A,] | .[G,,B,,D,G,].[G,,B,,D,G,] .[G,,B,,D,G,].[G,,B,,D,G,] | %99
 .[G,,B,,D,G,].[G,,B,,D,G,] .[G,,B,,D,G,].[G,,B,,D,G,] | %100
 .[G,,C,D,F,].[G,,C,D,F,] .[G,,C,D,F,].[G,,C,D,F,] | %101
 .[G,,C,D,F,].[G,,C,D,F,] .[G,,C,D,F,].[G,,C,D,F,] | %102
 .[G,,B,,D,G,].[G,,B,,D,G,] .[G,,B,,D,G,].[G,,B,,D,G,] | %103
 .[G,,B,,D,G,].[G,,B,,D,G,] .[G,,B,,D,G,].[G,,B,,D,G,] | %104
 .[G,,C,D,F,].[G,,C,D,F,] .[G,,C,D,F,].[G,,C,D,F,] | [G,,B,,D,G,]2 !>!G,,2 |: %106
[K:E]!ped! z (.E,, .G,,.B,, | .E,.G, .B,)!ped-up![K:treble] ([EG] | .[FA]).[EG] .[DF].[CE] | %109
[K:bass] .[B,D].[A,C] .[G,B,].[F,A,] |!ped! z (.E,, .G,,.B,, | .E,.G, .B,)!ped-up!(E | %112
 .D).E .D.[F,C] |[M:3/8] .[B,,B,].F,.B,, ::[M:1/8] z |[M:2/4] z[K:treble] .B, .A.G | .F.E .D.B, | %117
[K:bass] .E.A, .G,.F, | .G,.A, .G,.E, | .B,, z[K:treble] .A.G | .F.E .D.B, | %121
[K:bass] .E.A, .B,.B,, |[M:3/8] .E,.B,,.E,, :|[M:1/8] z |[M:2/4]!ped! z (.E,, .G,,.B,, | %125
 .E,.G, .B,)!ped-up!(=D | .=C).=D .C.G, | .A,.G, .A,.=C | .B,.=C .B,.F, || %129
[K:G] G,,/B,/D,/B,/ G,/B,/D,/B,/ | G,,/B,/D,/B,/ G,/B,/D,/B,/ | G,,/C/D,/C/ F,/C/D,/C/ | %132
 G,,/C/D,/C/ F,/C/D,/C/ | G,,/B,/D,/B,/ G,/B,/D,/B,/ | G,,/B,/D,/B,/ G,/B,/D,/B,/ | %135
 G,,/C/D,/C/ F,/C/D,/C/ | G,,/B,/D,/B,/ G,, z | !>!E,/E/B,/E/ !>!F,/E/B,/E/ | %138
 !>!G,/E/B,/E/ !>!E,/E/B,/E/ | !>!B,,/B,/A,/B,/ !>!^D,/B,/A,/B,/ | %140
 !>!F,/B,/A,/B,/ !>!^D,/B,/A,/B,/ | !>!E,/E/B,/E/ !>!F,/E/B,/E/ | !>!G,/E/B,/E/ !>!E,/E/B,/E/ | %143
 A,,/A,/E,/A,/ G,/A,/E,/A,/ | D,/E,/F,/G,/ A,/B,/=C/A,/ | G,,/B,/D,/B,/ G,/B,/D,/B,/ | %146
 G,,/B,/D,/B,/ G,/B,/D,/B,/ | G,,/C/D,/C/ F,/C/D,/C/ | G,,/C/D,/C/ F,/C/D,/C/ | %149
 G,,/B,/D,/B,/ G,/B,/D,/B,/ | G,,/B,/D,/B,/ G,/B,/D,/B,/ | G,,/C/D,/C/ F,/C/D,/C/ | %152
 G,,/B,/D,/B,/ G,, z | !tenuto!F,2 (^C/D/C/D/) | !tenuto!G,2 (^C/D/C/D/) | %155
 !tenuto!A,2 (^C/D/C/D/) | !tenuto!B,2 (^C/D/C/D/) | !tenuto!F,2 (_E/D/E/D/) | %158
 !tenuto!G,2 (_E/D/E/D/) | !tenuto!=E,2 (G,/_B,/G,/B,/) | !tenuto!_E,2 (G,/_B,/G,/B,/) | %161
 !tenuto!D,2 (A,/!>(!D/A,/D/) | !tenuto!D,2 (A,/D/A,/D/) | !tenuto!_E,2 (G,/_B,/G,/B,/) | %164
 !tenuto!_E,2 (G,/_B,/G,/B,/)!>)! ||[K:Ab] .[A,C].[A,CE] .[A,CE].[A,CE] | %166
 .[A,CE].[A,CE] .[A,CE].[A,CE] | .[A,DEG].[A,DEG] .[A,DEG].[A,DEG] | %168
 .[A,DEG].[A,DEG] .[A,DEG].[A,DEG] | .[A,CE].[A,CE] .[A,CE].[A,CE] | %170
 .[A,CE].[A,CE] .[A,CE].[A,CE] | .[A,DEG].[A,DEG] .[A,DEG].[A,DEG] | .[A,CEA].G, .A,.B, | %173
 (C/B,/A,/G,/ F,/G,/A,/B,/ | .C).C!sfz! !>!F2 | (F/=E/F/E/ !tenuto!C2) | (F/=E/F/E/ !tenuto!C2) | %177
 (C/B,/A,/G,/ F,/G,/A,/B,/ | .C).C!sfz! !>!F2 | T=D3 C/D/ | .E2 z2 | %181
 .[A,CE].[A,CE] .[A,CE].[A,CE] | .[A,CE].[A,CE] .[A,CE].[A,CE] | %183
 .[G,B,DE].[G,B,DE] .[G,B,DE].[G,B,DE] | .[G,B,DE].[G,B,DE] .[G,B,DE].[G,B,DE] | (!>!A,,2 .C,).C, | %186
 .E,.E, !>!A,2 | (!>!B,2 .G,).G, | .=E,.E, !>!B,,2 | (!>!A,,2 .C,).C, | .F,.F, !>!A,2 | %191
 (!>!G,2 .E,).E, | .C,.C, !>!_G,,2 | z/ !>!F,/D,/A,,/ F,,/D,/A,,/F,,/ | %194
 D,,/F,,/D,,/A,,,/ F,,,/A,,,/D,,/F,,/ | !>!F,,,/=A,,,/C,,/F,,/ !>!A,,,/C,,/F,,/=A,,/ | %196
 !>!C,,/F,,/=A,,/C,/ !>!F,,/A,,/C,/F,/ | !>!B,,/F,/D,/B,,/ F,,/D,/B,,/F,,/ | %198
 D,,/B,,/F,,/D,,/ B,,,/D,,/F,,/B,,/ | !>!D,,/F,,/A,,/D,/ !>!F,,/A,,/D,/F,/ | %200
 !>!A,,/D,/F,/A,/ !>!D,/F,/A,/D/ | !>!_G,/D/B,/G,/ D,/B,/G,/D,/ | B,,/_G,/D,/B,,/ _G,,/B,,/D,/G,/ | %203
 !>!=E,,/=G,,/B,,/D,/ !>!G,,/B,,/D,/=E,/ | G,,/B,,/D,/=E,/ G,,/B,,/D,/E,/ | %205
 z/ F,,/=A,,/C,/ F,,/A,,/C,/F,/ | F,,/=A,,/C,/E,/ F,,/A,,/C,/E,/ | F,,2 z2 | z4 | z4 | z4 | z4 | %212
 z4 | z4 | z4 | z4 | z4 ||[K:Bb] z2 (=E,F, | B,2 =E,F, | A,2 =E,F, | A,2 =E,F,) | z2 (^C,D, | %222
 F,2 =E,F,) | z2 (^G,A,) | z2 (A,B,) | z2 ([^F,A,][G,B,]) | z2 ([^F,A,][G,B,]) | %227
 z2 ([^G,=B,][A,C]) | z2 ([^G,=B,][A,C]) | z2 ([^F,A,][G,B,]) | z2 ([^F,A,][G,B,]) | %231
 z2 ([^F,A,][G,B,]) | z2 ([^G,=B,][A,C]) | z2 (^C,D, | F,2 A,B,) | z2 (^G,A,) | z2 (^G,A,) | %237
 z2 (^C,D, | F,2 A,B,) | z2 (DE) | z2 (^CD) | z2 (=EF) | z2 (D_E) | z2 (=B,C) | z2 (=B,C) | %245
 z2 (=B,C) | z2 (=B,C) |[K:G]!sfz! [D,F,A,C]2 z2 | z4 | z4 | z4 | z4 | z4 | z4 | z4 | z2 (F,G, | %256
 D,2 F,G,) | (D,2 F,2 | D,2 F,2) | (G,2 F,G, | D,2 F,G, | D,2 F,2 | G,).D, .B,,.G,, | %263
 z2[K:treble] ([^DF][EG]) | z2 ([^DF][EG]) | z2 ([^E^G][FA]) | z2 ([^E^G][FA]) | z2 ([^DF][=E=G]) | %268
 z2 ([^DF][EG]) | z2 ([^DF][EG]) | z2 ([^E^G][FA]) |[K:bass] =G,/D/B,/G,/ D,/B,/G,/D,/ | %272
 B,,/G,/D,/B,,/ G,,/D,/B,,/.G,,/ |!ped! !>!F,,/A,,/D,,/F,,/ A,,/D,/F,/A,/ | %274
 F,/A,/D,/F,/ A,/D/C/A,/!ped-up! | =G,/D/B,/G,/ D,/B,/G,/D,/ | B,,/G,/D,/B,,/ G,,/D,/B,,/.G,,/ | %277
!ped! D,,/D,/F,/A,/ D,/C/!ped-up!D,/C/ | G,/B,/D/B,/ .G, z |[K:treble] z2 (g/f/g/f/) | %280
 z2 (^d/e/d/e/) | z2 (e/^d/e/d/) | z2 (B/c/B/c/) | z2 (c/B/c/B/) | !tenuto!^G2 (B/A/B/A/) | %285
 !tenuto!^F2 (A/=G/A/G/) | !tenuto!E2 (G/F/G/F/) | .^D.E .^C.=D |[K:bass] .B,.=C .A,.B, | %289
 .G,.A, .F,.G, | .E,.F, .^D,.E, |!sfz! !>![A,,C,]4 |!sfz! !>![^A,,^C,]4 | .B,,2 z2 | z4 | %295
!sfz! !>![D,=F,]4 |!sfz! !>![^D,^F,]4 | .[E,^G,]2 z2 | z4 |!sfz! !>![=G,_B,]4 |!sfz! !>![_A,B,]4 | %301
 ([G,B,]4 |!ped! [C,C]4)!ped-up! |!sfz! !>![=F,A,]4 |!sfz! !>![_G,A,]4 | ([=F,A,]4 | %306
!ped! [_B,,_B,]4)!ped-up! |!sfz! !>![_E,G,]4 |!sfz! !>![_F,G,]4 | .[_E,G,]2 ._E,,2 | z4 | %311
 !>!_A,,,/C,,/_E,,/_A,,/ C,,/E,,/A,,/C,/ | _E,,/_A,,/C,/_E,/ A,,/C,/E,/_A,/ | !>!G,2 .=E,.E, | %314
 .C,.C, !>!G,,2 | !>!=F,,,/_A,,,/C,,/=F,,/ A,,,/C,,/F,,/_A,,/ | C,,/=F,,/_A,,/C,/ F,,/A,,/C,/=F,/ | %317
 !>!_E,2 .C,.C, | .G,,.G,, !>!_E,,2 | !>!D,,2 .F,,.F,, | .A,,.A,, !>!D,2 | !>!D,,2 .G,,.G,, | %322
 ._B,,.B,, !>!D,2 | !>!D,,2 .G,,.G,, | ._B,,.B,, !>!D,2 | !>!D,,2 z2 | z4 | !>!D,,2 .F,,.F,, | %328
 .A,,.A,, !>!D,2 | !>!_E,,2 .G,,.G,, | .C,.C, !>!_E,2 | !>!=E,,2 .G,,.G,, | .C,.C, !>!=E,2 | %333
 !>!=F,,2 .A,,.A,, | .C,.C, !>!=F,2 | .[^F,,A,,C,D,]2 z2 | z4 | z4 | %338
 A,,/G,,/F,,/E,,/ D,,/^C,,/D,,/C,,/ | D,,2 .F,,.F,, | A,,2 z2 | F,,2 .A,,.A,, | C,2 z2 | %343
 A,,2 .C,.C, | _E,2 z2 | F,,2 .[C,_E,].[C,E,] | F,,2 .[C,_E,].[C,E,] | G,,2 .[C,=E,].[C,E,] | %348
 G,,2 .[D,=F,].[D,F,] | ^G,,2 .[D,=F,].[D,F,] | ^G,,2 .[D,=F,].[D,F,] | A,,2 .[D,^F,].[D,F,] | %352
 A,,2 .[E,G,].[E,G,] | ^A,,2 .[E,G,].[E,G,] | ^A,,2 .[E,G,].[E,G,] | B,,2 .[E,^G,].[E,G,] | %356
 B,,2 .[F,A,].[F,A,] | B,,2 .^G,.G, | B,,2 .[F,A,].[F,A,] | B,,2 .[E,^G,].[E,G,] | %360
 _C,2 .[F,A,].[F,A,] | _B,,2 .[_E,G,].[E,G,] | _B,,2 .[=F,_A,].[F,A,] | _E,2 .G,.G, | _E,2 .G,.G, | %365
 D,2 .[G,A,].[G,A,] | D,2 .[F,A,].[F,A,] | G,2 ._B,.B, | _E,2 .[G,A,].[G,A,] | D,2 .[G,A,].[G,A,] | %370
 D,2 .[F,A,].[F,A,] |!ped! z .[G,,=B,,D,G,] z .[G,,B,,D,G,] | %372
 z .[G,,B,,D,G,] z .[G,,B,,D,G,]!ped-up! | z .[G,,C,D,F,] z .[G,,C,D,F,] | %374
 z .[G,,C,D,F,] z .[G,,C,D,F,] |!ped! z .[G,,B,,D,G,] z .[G,,B,,D,G,] | %376
 z .[G,,B,,D,G,] z .[G,,B,,D,G,]!ped-up! | z .[G,,C,D,F,] z .[G,,C,D,F,] | %378
 z .[G,,B,,D,G,] z .[G,,B,,D,G,] |!ped! z .[E,G,B,E] z .[E,G,B,E] | %380
 z .[E,G,B,E] z .[E,G,B,E]!ped-up! | z .[B,,F,A,B,] z .[B,,F,A,B,] | %382
 z .[B,,F,A,B,] z .[B,,F,A,B,] |!ped! z .[E,G,B,E] z .[E,G,B,E] | %384
 z .[E,G,B,E] z .[E,G,B,E]!ped-up! | z .[A,,^C,E,G,] z .[A,,C,E,G,] | z .[D,F,] z .[D,F,A,D] | %387
!ped! z/ !>!D/B,/G,/ D,/B,/G,/D,/ | B,,/G,/D,/B,,/ G,,/D,/B,,/G,,/!ped-up! | %389
!ped! D,,/F,,/A,,/D,/ F,,/A,,/D,/F,/ | A,,/D,/F,/A,/ D,/F,/A,/C/!ped-up! | %391
!ped! z/ !>!D/B,/G,/ D,/B,/G,/D,/ | B,,/G,/D,/B,,/ G,,/D,/B,,/G,,/!ped-up! | %393
!ped! D,,/F,,/A,,/D,/ D,,/F,,/A,,/D,/!ped-up! | .G,,2 z2 | z4 | z4 | (A,/G,/F,/E,/ D,/E,/F,/G,/ | %398
 .A,).A, .D2 | (!>!D2 C) z | z .C .C.C | (B,/A,/G,/^F,/ E,/F,/G,/A,/ | .B,).B, !tenuto!E2 | %403
 (!>!E2 ^D) z |[K:treble] !tenuto![^DFB]4 | !tenuto![=DEB]4 | !tenuto![^C=GA]4 | !tenuto![=CDA]4 | %408
 !tenuto![B,DG]4 |[K:bass]!ped! !tenuto![C,G,C]4!ped-up! |!ped! !tenuto![D,G,B,]4!ped-up! | %411
!ped! !tenuto![E,G,C]4!ped-up! |!ped! !tenuto![_E,G,^C]4!ped-up! |!sfz! .[D,G,B,D] z z2 | z4 | %415
 (D,2 .F,).F, | .A,.A, .C.C | (C/B,/C/B,/) !tenuto!G,2 | (C/B,/C/B,/) !tenuto!G,2 | %419
[K:treble] (D2 .F).F | .A.A .c.c | (c/B/c/B/) !tenuto!G2 | (c/B/c/B/) !tenuto!G2 | (D2 .F).F | %424
 .A.A !tenuto!c2 | z2 (F/G/F/G/) | z2 (G/F/G/F/) |[K:bass] z2 (F,/G,/F,/G,/) | z2 (G,/F,/G,/F,/) | %429
 z2 (F,,/G,,/F,,/G,,/) | z2 (G,,/F,,/G,,/F,,/) | z2 (F,,/G,,/F,,/G,,/) | z2 (G,,/F,,/G,,/F,,/) | %433
 z2 (F,,/G,,/F,,/G,,/) | z2 (F,,/G,,/F,,/G,,/) | z2 (F,,/G,,/F,,/G,,/) | z2 (F,,/G,,/F,,/G,,/) | %437
 z2 (F,,/G,,/F,,/G,,/) | z2 (F,,/G,,/F,,/G,,/) |!ped! !>!G,,,2 z2 | z4 | %441
 !>![G,,,B,,,D,,G,,]2 z2!ped-up! |] %442
V:3
 x4 | x4 | x4 | x4 | x4 | x4 | x4 | x4 | x4 | x4 | x4 | x4 | x4 | x4 | x4 | x4 | x4 | x4 | x4 | %19
 x4 | x4 | x4 | x4 | x4 || x4 | x4 | x4 | x4 | x4 | x4 | x4 | x4 | x4 | x4 | x4 | x4 | x4 | x4 | %38
 x4 | x4 | x4 | x4 | x4 | x4 | x4 | x4 | x4 | x4 | x4 | x4 | x4 | x4 | x4 | x4 | x4 | x4 |: %56
[K:Bb] x4 | x4 | x4 | x4 | x4 | x4 | x4 |1 x4 :|2 x4 |: x4 | x4 | x4 | x4 | x4 | x4 | x4 |1 x4 :|2 %73
 x4 || x4 | x4 | x4 | x4 | x4 | x4 | x4 | x4 ||[K:G] x4 | x4 | x4 | x4 | x4 | x4 | x4 | x4 | x4 | %91
 x4 | x4 | x4 | x4 | x4 | x4 | x4 | x4 | x4 | x4 | x4 | x4 | x4 | x4 | x4 |:[K:E] x4 | %107
 x3[K:treble] x | x4 |[K:bass] x4 | x4 | x4 | x4 |[M:3/8] x3 ::[M:1/8] x |[M:2/4] x[K:treble] x3 | %116
 x4 |[K:bass] x4 | x4 | x2[K:treble] x2 | x4 |[K:bass] x4 |[M:3/8] x3 :|[M:1/8] x |[M:2/4] x4 | %125
 x4 | x4 | x4 | x4 ||[K:G] x4 | x4 | x4 | x4 | x4 | x4 | x4 | x4 | x4 | x4 | x4 | x4 | x4 | x4 | %143
 x4 | x4 | x4 | x4 | x4 | x4 | x4 | x4 | x4 | x4 | x4 | x4 | x4 | x4 | x4 | x4 | x4 | x4 | x4 | %162
 x4 | x4 | x4 ||[K:Ab] x4 | x4 | x4 | x4 | x4 | x4 | x4 | x4 | x4 | x4 | x4 | x4 | x4 | x4 | x4 | %180
 x4 | x4 | x4 | x4 | x4 | x4 | x4 | x4 | x4 | x4 | x4 | x4 | x4 | x4 | x4 | x4 | x4 | x4 | x4 | %199
 x4 | x4 | x4 | x4 | x4 | x4 | x4 | x4 | x4 | x4 | x4 | x4 | x4 | x4 | x4 | x4 | x4 | x4 || %217
[K:Bb] B,,4 | B,,4 | B,,4 | B,,4 | B,,4 | B,,4 | B,,4 | B,,4 | x4 | x4 | x4 | x4 | x4 | x4 | x4 | %232
 x4 | B,,4 | B,,4 | B,,4 | B,,4 | B,,4 | B,,4 | !tenuto!A,4 | !tenuto!B,4 | !tenuto!=B,4 | %242
 !tenuto!C4 | (!>!A,4 | !>!G,4 | !>!^F,4 | !>!=E,4) |[K:G] x4 | x4 | x4 | x4 | x4 | x4 | x4 | x4 | %255
 x4 | x4 | x4 | x4 | x4 | x4 | x4 | x4 | x2[K:treble] x2 | x4 | x4 | x4 | x4 | x4 | x4 | x4 | %271
[K:bass] x4 | x4 | x4 | x4 | x4 | x4 | x4 | x4 |[K:treble] x4 | x4 | x4 | x4 | x4 | x4 | x4 | x4 | %287
 x4 |[K:bass] x4 | x4 | x4 | x4 | x4 | x4 | x4 | x4 | x4 | x4 | x4 | x4 | x4 | x4 | x4 | x4 | x4 | %305
 x4 | x4 | x4 | x4 | x4 | x4 | x4 | x4 | x4 | x4 | x4 | x4 | x4 | x4 | x4 | x4 | x4 | x4 | x4 | %324
 x4 | x4 | x4 | x4 | x4 | x4 | x4 | x4 | x4 | x4 | x4 | x4 | x4 | x4 | x4 | x4 | x4 | x4 | x4 | %343
 x4 | x4 | x4 | x4 | x4 | x4 | x4 | x4 | x4 | x4 | x4 | x4 | x4 | x4 | x4 | x4 | x4 | x4 | x4 | %362
 x4 | x4 | x4 | x4 | x4 | x4 | x4 | x4 | x4 | x4 | x4 | x4 | x4 | x4 | x4 | x4 | x4 | x4 | x4 | %381
 x4 | x4 | x4 | x4 | x4 | x4 | x4 | x4 | x4 | x4 | x4 | x4 | x4 | x4 | x4 | x4 | x4 | x4 | x4 | %400
 x4 | x4 | x4 | x4 |[K:treble] x4 | x4 | x4 | x4 | x4 |[K:bass] x4 | x4 | x4 | x4 | x4 | x4 | x4 | %416
 x4 | x4 | x4 |[K:treble] x4 | x4 | x4 | x4 | x4 | x4 | !tenuto!G,4 | !tenuto!G,4 | %427
[K:bass] !tenuto!G,,4 | !tenuto!G,,4 | !tenuto!G,,,4 | !tenuto!G,,,4 | !tenuto!G,,,4 | %432
 !tenuto!G,,,4 | !tenuto!G,,,4 | !tenuto!G,,,4 | !tenuto!G,,,4 | !tenuto!G,,,4 | !tenuto!G,,,4 | %438
 !tenuto!G,,,4 | x4 | x4 | x4 |] %442
V:4
 x4 | x4 | x4 | x4 | x4 | x4 | x4 | x4 | x4 | x4 | x4 | x4 | x4 | x4 | x4 | x4 | x4 | x4 | x4 | %19
 x4 | x4 | x4 | x4 | x4 || x4 | x4 | x4 | x4 |[K:bass] x4 | x4 |[K:treble] x4 | x4 | x4 | x4 | x4 | %35
 x4 | x4 | x4 | x4 | x4 | x4 | x4 | x4 | x4 | x4 | x4 | x4 | x4 | x4 | x4 | x4 | x4 | x4 | x4 | %54
 x4 | x4 |:[K:Bb] x4 | x4 | x4 | x4 | x4 | x4 | x4 |1 x4 :|2 x4 |: x4 | x4 | x4 | x4 | x4 | x4 | %71
 x4 |1 x4 :|2 x4 || x4 | x4 | x4 | x4 | x4 | x4 | x4 | x4 ||[K:G] x4 | x4 | x4 | x4 | x4 | x4 | %88
 x4 | x4 | x4 | x4 | x4 | x4 | x4 | x4 | x4 | x4 | x4 | x4 | x4 | x4 | x4 | x4 | x4 | x4 |: %106
[K:E] x4 | x4 | x4 | x4 | x4 | x4 | x4 |[M:3/8] x3 ::[M:1/8] x |[M:2/4] x4 | x4 | x4 | x4 | x4 | %120
 x4 | x4 |[M:3/8] x3 :|[M:1/8] x |[M:2/4] x4 | x4 | x4 | x4 | x4 ||[K:G] x4 | x4 | x4 | x4 | x4 | %134
 x4 | x4 | x4 | x4 | x4 | x4 | x4 | x4 | x4 | x4 | x4 | x4 | x4 | x4 | x4 | x4 | x4 | x4 | x4 | %153
 x4 | x4 | x4 | x4 | x4 | x4 | x4 | x4 | x4 | x4 | x4 | x4 ||[K:Ab] x4 | x4 | x4 | x4 | x4 | x4 | %171
 x4 | x4 | x4 | x4 | x4 | x4 | x4 | x4 | x4 | x4 | x4 | x4 | x4 | x4 | x4 | x4 | x4 | x4 | x4 | %190
 x4 | x4 | x4 | x4 | x4 | x4 | x4 | x4 | x4 | x4 | x4 | x4 | x4 | x4 | x4 | x4 | x4 | x4 | x4 | %209
 x4 | x4 | x4 |[K:bass] x4 | x4 | x2[K:treble] x2 | x4 | x4 ||[K:Bb] x4 | x4 | x4 | x4 | x4 | x4 | %223
 x4 | x4 | x4 | x4 | x4 | x4 | x4 | x4 | x4 | x4 | x4 | x4 | x4 | x4 | x4 | x4 | F4 | F4 | x4 | %242
 x4 | x4 | x4 | x4 | x4 |[K:G] x4 | x4 | x2[K:bass] x2 | x4 | x4 | x4 | x4 |[K:treble] x4 | z2 D2 | %256
 x4 | z2 (CD) | z2 (CD) | B,2 D2 | x4 | z2 CD | B,!mf! z z2 | x4 | x4 | x4 | x4 | x4 | x4 | x4 | %270
 x4 | x4 | x4 | x4 | x4 | x4 | x4 | x4 | x4 | x4 | x4 | x4 | x4 | x4 | x4 | x4 | x4 | x4 | x4 | %289
 x4 | x4 |[K:bass] x4 | x4 |[K:treble] x4 | x4 | x4 | x4 | x4 | x4 | x4 | x4 | x4 | x4 | x4 | x4 | %305
 x4 | x4 | x4 | x4 | x4 | x4 | x4 | x4 | x4 | x4 | x4 | x4 | x4 | x4 | x4 | x4 | x4 | x4 | x4 | %324
 x4 | x4 | x4 | x4 | x4 | x4 | x4 | x4 | x4 | x4 | x4 | x4 | x4 |[K:bass] x4 | x4 | x4 | x4 | x4 | %342
 x4 | x4 |[K:treble] x4 | x4 | x4 | x4 | x4 | x4 | x4 | x4 | x4 | x4 | x4 | x4 | x4 | x4 | x4 | %359
 x4 | x4 | x4 | x4 | x4 | x4 | x4 | x4 | x4 | x4 | x4 | x4 | x4 | x4 | .[df] z .[df] z | %374
 .[cd] z .A z | x4 | x4 | .[df] z .[df] z | x4 | x4 | x4 | .[fa] z .[fa] z | .[fa] z .[fa] z | x4 | %384
 x4 | .[eg] z z2 | x4 | x4 | x4 | x4 | x4 | x4 | x4 | x4 | x4 | x4 | x4 | x4 | x4 | x4 | x4 | x4 | %402
 x4 | x4 | x4 | !tenuto!e4 | x4 | !tenuto!d4 | x4 | !tenuto!c4 | !tenuto!B4 | !tenuto!A4 | %412
 !tenuto!A4 | x4 | x4 | x4 | x4 | x4 | x4 | x4 | x4 | x4 | x4 | z2 (_e/d/e/d/) | z2 (_e/d/e/d/) | %425
 (=e/d/e/d/) z2 | (_e/d/e/d/) z2 | (=E/D/E/D/) z2 | (_E/D/E/D/) z2 |[K:bass] (=E,/D,/E,/D,/) z2 | %430
 (_E,/D,/E,/D,/) z2 | (=E,/D,/E,/D,/) z2 | (_E,/D,/E,/D,/) z2 | (=E,/D,/E,/D,/) z2 |[K:treble] x4 | %435
[K:bass] (E,/D,/E,/D,/) z2 |[K:treble] x4 |[K:bass] (E,/D,/E,/D,/) z2 |[K:treble] x4 | x4 | x4 | %441
 x4 |] %442

